X:9
M:2/4
L:1/8
K:G
|: d | afga | gbgd | egec | B2g2 | ceac | BdgB | AcBA | G2 [G,G] :|

